packages/core/src/svgs/atd.svg

<svg width="24" height="24" viewBox="0 0 24 24" fill="none" xmlns="http://www.w3.org/2000/svg">
<g clip-path="url(#clip0_31_6304)">
<path d="M0 0H24V24H0V0Z" fill="#F0F3FA"/>
<path d="M12.2143 6.85721C12.4984 6.85721 12.7709 6.74433 12.9719 6.5434C13.1728 6.34247 13.2857 6.06994 13.2857 5.78578C13.2857 5.50162 13.1728 5.2291 12.9719 5.02817C12.7709 4.82724 12.4984 4.71436 12.2143 4.71436C11.9301 4.71436 11.6576 4.82724 11.4566 5.02817C11.2557 5.2291 11.1428 5.50162 11.1428 5.78578C11.1428 6.06994 11.2557 6.34247 11.4566 6.5434C11.6576 6.74433 11.9301 6.85721 12.2143 6.85721Z" fill="url(#paint0_linear_31_6304)"/>
<path d="M7.78287 15.8569C7.27715 15.8569 6.86572 16.1912 6.86572 16.6798C6.86683 16.7987 6.8915 16.9162 6.93831 17.0256C6.98511 17.1349 7.05312 17.2339 7.1384 17.3168C7.22368 17.3997 7.32455 17.4648 7.43516 17.5085C7.54578 17.5522 7.66396 17.5735 7.78287 17.5712H16.2257C16.3446 17.5735 16.4628 17.5522 16.5734 17.5085C16.684 17.4648 16.7849 17.3997 16.8702 17.3168C16.9555 17.2339 17.0235 17.1349 17.0703 17.0256C17.1171 16.9162 17.1418 16.7987 17.1429 16.6798C17.1429 16.1912 16.7314 15.8569 16.2257 15.8569H7.78287Z" fill="#610467"/>
<path d="M7.26426 17.4299C7.46355 17.5581 7.70539 17.6026 7.93728 17.5537C8.16917 17.5047 8.3724 17.3663 8.50284 17.1684L10.9971 13.367C11.2671 12.9556 11.1514 12.407 10.7357 12.1413C10.5364 12.013 10.2946 11.9685 10.0627 12.0175C9.83079 12.0664 9.62756 12.2048 9.49712 12.4027L7.00284 16.2041C6.73284 16.6156 6.84855 17.1641 7.26426 17.4299Z" fill="#610467"/>
<path d="M9.80999 7.8773C9.71316 7.94285 9.63053 8.02726 9.56706 8.12547C9.50358 8.22369 9.46056 8.33369 9.44056 8.4489C9.42055 8.56412 9.42398 8.68218 9.45064 8.79604C9.4773 8.9099 9.52664 9.01722 9.59571 9.11158L15.5014 17.203C15.7928 17.5973 16.3586 17.6916 16.7657 17.4087C16.8622 17.3428 16.9444 17.2582 17.0075 17.1598C17.0706 17.0614 17.1132 16.9514 17.1328 16.8362C17.1524 16.721 17.1486 16.603 17.1216 16.4893C17.0946 16.3756 17.045 16.2685 16.9757 16.1744L11.07 8.08301C10.7786 7.68873 10.2128 7.59444 9.80999 7.8773Z" fill="url(#paint1_linear_31_6304)"/>
</g>
<defs>
<linearGradient id="paint0_linear_31_6304" x1="12.2143" y1="4.71436" x2="12.2143" y2="6.85721" gradientUnits="userSpaceOnUse">
<stop stop-color="#E4396A"/>
<stop offset="1" stop-color="#300F39"/>
</linearGradient>
<linearGradient id="paint1_linear_31_6304" x1="13.9286" y1="12.2144" x2="13.0714" y2="12.8573" gradientUnits="userSpaceOnUse">
<stop stop-color="#D12D6D"/>
<stop offset="1" stop-color="#610467"/>
</linearGradient>
<clipPath id="clip0_31_6304">
<rect width="24" height="24" fill="white"/>
</clipPath>
</defs>
</svg>

<svg xmlns="http://www.w3.org/2000/svg" width="24" height="24" fill="none" viewBox="0 0 24 24"><g clip-path="url(#a)"><path fill="#F0F3FA" d="M0 0h24v24H0z"/><path fill="url(#b)" d="M12.214 6.857a1.072 1.072 0 1 0 0-2.143 1.072 1.072 0 0 0 0 2.143"/><path fill="#610467" d="M7.783 15.857c-.506 0-.917.334-.917.823a.9.9 0 0 0 .917.891h8.443a.9.9 0 0 0 .917-.891c0-.489-.412-.823-.917-.823z"/><path fill="#610467" d="M7.264 17.43a.9.9 0 0 0 1.239-.262l2.494-3.801a.88.88 0 0 0-.261-1.226.9.9 0 0 0-1.239.262l-2.494 3.801a.88.88 0 0 0 .261 1.226"/><path fill="url(#c)" d="M9.81 7.877a.87.87 0 0 0-.214 1.235l5.905 8.091a.925.925 0 0 0 1.265.206.87.87 0 0 0 .21-1.235L11.07 8.083a.92.92 0 0 0-1.26-.206"/></g><defs><linearGradient id="b" x1="12.214" x2="12.214" y1="4.714" y2="6.857" gradientUnits="userSpaceOnUse"><stop stop-color="#E4396A"/><stop offset="1" stop-color="#300F39"/></linearGradient><linearGradient id="c" x1="13.929" x2="13.071" y1="12.214" y2="12.857" gradientUnits="userSpaceOnUse"><stop stop-color="#D12D6D"/><stop offset="1" stop-color="#610467"/></linearGradient><clipPath id="a"><path fill="#fff" d="M0 0h24v24H0z"/></clipPath></defs></svg>
